build/security/PasswordSolid.svg

<svg xmlns="http://www.w3.org/2000/svg" fill="none" viewBox="0 0 24 24" focusable="false"><path d="M0 0H24V24H0z"/><path fill="#74767B" fill-rule="evenodd" d="M5 2L19 2C20.6569 2 22 3.34315 22 5L22 19C22 20.6569 20.6569 22 19 22L5 22C3.34315 22 2 20.6569 2 19L2 5C2 3.34315 3.34315 2 5 2ZM7.75 12C7.75 12.8284 7.07843 13.5 6.25 13.5C5.42157 13.5 4.75 12.8284 4.75 12C4.75 11.1716 5.42157 10.5 6.25 10.5C7.07843 10.5 7.75 11.1716 7.75 12ZM13.5 12C13.5 12.8284 12.8284 13.5 12 13.5C11.1716 13.5 10.5 12.8284 10.5 12C10.5 11.1716 11.1716 10.5 12 10.5C12.8284 10.5 13.5 11.1716 13.5 12ZM17.75 13.5C18.5784 13.5 19.25 12.8284 19.25 12C19.25 11.1716 18.5784 10.5 17.75 10.5C16.9216 10.5 16.25 11.1716 16.25 12C16.25 12.8284 16.9216 13.5 17.75 13.5Z"/></svg>

<svg xmlns="http://www.w3.org/2000/svg" fill="none" viewBox="0 0 24 24" focusable="false"><path fill="#74767B" fill-rule="evenodd" d="M5 2h14c1.65 0 3 1.34 3 3v14c0 1.65-1.35 3-3 3H5c-1.66 0-3-1.35-3-3V5c0-1.66 1.34-3 3-3m2.75 10c0 .82-.68 1.5-1.5 1.5-.83 0-1.5-.68-1.5-1.5 0-.83.67-1.5 1.5-1.5.82 0 1.5.67 1.5 1.5m5.75 0c0 .82-.68 1.5-1.5 1.5-.83 0-1.5-.68-1.5-1.5 0-.83.67-1.5 1.5-1.5.82 0 1.5.67 1.5 1.5m4.25 1.5c.82 0 1.5-.68 1.5-1.5 0-.83-.68-1.5-1.5-1.5-.83 0-1.5.67-1.5 1.5 0 .82.67 1.5 1.5 1.5"/></svg>
